assets/icons/image/history.svg

<?xml version="1.0" encoding="UTF-8" standalone="no"?>
<svg viewBox="0 0 24 24" height="24" id="svg7384" version="1.1" width="24" sodipodi:docname="history.svg" inkscape:version="1.1.2 (76b9e6a115, 2022-02-25)"
   xmlns:inkscape="http://www.inkscape.org/namespaces/inkscape"
   xmlns:sodipodi="http://sodipodi.sourceforge.net/DTD/sodipodi-0.dtd"
   xmlns="http://www.w3.org/2000/svg"
   xmlns:svg="http://www.w3.org/2000/svg"
   xmlns:rdf="http://www.w3.org/1999/02/22-rdf-syntax-ns#"
   xmlns:cc="http://creativecommons.org/ns#"
   xmlns:dc="http://purl.org/dc/elements/1.1/">
   <sodipodi:namedview id="namedview21" pagecolor="#ffffff" bordercolor="#666666" borderopacity="1.0" inkscape:pageshadow="2" inkscape:pageopacity="0.0" inkscape:pagecheckerboard="0" showgrid="false" width="24px" inkscape:zoom="32" inkscape:cx="22.484375" inkscape:cy="15.5625" inkscape:window-width="1920" inkscape:window-height="1043" inkscape:window-x="1920" inkscape:window-y="0" inkscape:window-maximized="1" inkscape:current-layer="svg7384">
      <inkscape:grid type="xygrid" id="grid837" dotted="false" />
      <inkscape:grid type="xygrid" id="grid839" dotted="true" spacingx="0.5" spacingy="0.5" empspacing="10" />
   </sodipodi:namedview>
   <metadata id="metadata20854">
      <rdf:RDF>
         <cc:Work rdf:about="">
            <dc:format>image/svg+xml</dc:format>
            <dc:type rdf:resource="http://purl.org/dc/dcmitype/StillImage" />
         </cc:Work>
      </rdf:RDF>
   </metadata>
   <defs id="defs7386">
      <linearGradient id="linearGradient5606" inkscape:swatch="solid">
         <stop id="stop5608" offset="0" style="stop-color:#000000;stop-opacity:1;" />
      </linearGradient>
      <linearGradient id="linearGradient4526" inkscape:swatch="solid">
         <stop id="stop4528" offset="0" style="stop-color:#ffffff;stop-opacity:1;" />
      </linearGradient>
      <linearGradient id="linearGradient3600-4" inkscape:swatch="gradient">
         <stop id="stop3602-7" offset="0" style="stop-color:#f4f4f4;stop-opacity:1" />
         <stop id="stop3604-6" offset="1" style="stop-color:#dbdbdb;stop-opacity:1" />
      </linearGradient>
   </defs>
   <path style="color:#000000;fill:#808080;stroke-linecap:square;-inkscape-stroke:none" d="m 16,13 v 0.5 3.707031 l 1.646484,1.646485 0.353516,0.353515 0.707031,-0.707031 -0.353515,-0.353516 -1.353516,-1.353515 v -3.292969 -0.5 z" id="path179" />
   <path id="path2" style="line-height:125%;-inkscape-font-specification:Ubuntu;text-align:center;fill:#808080;stroke-width:1" d="M 16.5 11 A 5.5 5.5 0 0 0 12.759766 12.486328 L 12.751953 12.478516 L 12 11.726562 C 11.827441 12.206454 11.668613 12.692191 11.525391 13.181641 C 11.383126 13.673341 11.254039 14.167775 11.136719 14.666016 C 11.627368 14.556005 12.122616 14.428417 12.625 14.283203 C 13.13105 14.134321 13.615106 13.974351 14.074219 13.802734 L 13.472656 13.199219 A 4.5 4.5 0 0 1 16.5 12 A 4.5 4.5 0 0 1 21 16.5 A 4.5 4.5 0 0 1 16.5 21 A 4.5 4.5 0 0 1 12.039062 17 L 11.037109 17 A 5.5 5.5 0 0 0 16.5 22 A 5.5 5.5 0 0 0 22 16.5 A 5.5 5.5 0 0 0 16.5 11 z " />
   <g id="layer2" style="display:inline" transform="translate(-309.9995,-38)">
      <path id="path4527" style="color:#000000;display:inline;overflow:visible;visibility:visible;fill:#808080;fill-opacity:1;fill-rule:nonzero;stroke:none;stroke-width:5.99881;marker:none;enable-background:accumulate" d="M 5.9941406 3 C 4.7359406 3.0145 3.81525 2.9693996 3.0625 3.3847656 C 2.68613 3.5924256 2.3892694 3.9441545 2.2246094 4.3828125 C 2.0599394 4.8214835 2.15941 5.362006 2 6 L 2 10 L 2 14 C 2 14.65761 2.0598994 15.178526 2.2246094 15.617188 C 2.3892794 16.055844 2.68613 16.407584 3.0625 16.615234 C 3.81525 17.030554 4.7359506 16.98543 5.9941406 17 L 5.9980469 17 L 8 17 L 10 17 L 10 14 L 8 14 L 3.125 14 C 3.0362 11.676961 3.00085 9.123172 3 7 C 3 6 2.7899575 4.6718194 3.7734375 4.2246094 C 4.5156275 3.9843764 6 4 8 4 L 12.125 4 C 14.125 4 15.609463 3.9843804 16.351562 4.2246094 C 17.335043 4.6718194 17.125 6 17.125 7 C 17.124626 7.9334408 17.116883 8.9562951 17.101562 10 L 18.125 10 L 18.125 6 C 18.125 5.34239 18.065101 4.8214835 17.900391 4.3828125 C 17.735731 3.9441535 17.43887 3.5924256 17.0625 3.3847656 C 16.30975 2.9693996 15.389059 3.0145 14.130859 3 L 14.126953 3 L 12.125 3 L 8 3 L 5.9980469 3 L 5.9941406 3 z M 13.5 5 C 12.67157 5 12 5.67157 12 6.5 C 12 7.328427 12.67157 8 13.5 8 C 14.32843 8 15 7.328427 15 6.5 C 15 5.67157 14.32843 5 13.5 5 z M 8 7.5 L 5 13 L 7.71875 13 L 10 13 C 10 11.868051 10.622016 10.887967 11.542969 10.376953 L 10.5 8.5 L 9.5 10 L 8 7.5 z " transform="translate(309.9995,38)" />
   </g>
</svg>

<svg height="24" width="24" xmlns="http://www.w3.org/2000/svg"><path style="color:#000;fill:gray;stroke-linecap:square;-inkscape-stroke:none" d="M16 13v4.207l1.646 1.647.354.353.707-.707-.353-.354L17 16.793V13z"/><path style="line-height:125%;-inkscape-font-specification:Ubuntu;text-align:center;fill:gray;stroke-width:1" d="M16.5 11a5.5 5.5 0 0 0-3.74 1.486l-.008-.007-.752-.752a25.313 25.313 0 0 0-.863 2.939c.49-.11.986-.238 1.488-.383.506-.149.99-.309 1.45-.48l-.602-.604A4.5 4.5 0 0 1 16.5 12a4.5 4.5 0 0 1 4.5 4.5 4.5 4.5 0 0 1-4.5 4.5 4.5 4.5 0 0 1-4.46-4h-1.003a5.5 5.5 0 0 0 5.463 5 5.5 5.5 0 0 0 5.5-5.5 5.5 5.5 0 0 0-5.5-5.5z"/><g style="display:inline"><path style="color:#000;display:inline;overflow:visible;visibility:visible;fill:gray;fill-opacity:1;fill-rule:nonzero;stroke:none;stroke-width:5.99881;marker:none;enable-background:accumulate" d="M5.994 3c-1.258.014-2.179-.03-2.931.385a1.88 1.88 0 0 0-.838.998C2.06 4.82 2.159 5.362 2 6v8c0 .658.06 1.179.225 1.617.164.439.461.79.837.998.753.416 1.674.37 2.932.385H10v-3H3.125A193.585 193.585 0 0 1 3 7c0-1-.21-2.328.773-2.775C4.516 3.985 6 4 8 4h4.125c2 0 3.484-.016 4.227.225.983.447.773 1.775.773 2.775 0 .933-.008 1.956-.023 3h1.023V6c0-.658-.06-1.179-.225-1.617a1.88 1.88 0 0 0-.837-.998c-.753-.416-1.674-.37-2.932-.385H5.994zM13.5 5a1.5 1.5 0 1 0 0 3 1.5 1.5 0 0 0 0-3zM8 7.5 5 13h5c0-1.132.622-2.112 1.543-2.623L10.5 8.5l-1 1.5L8 7.5z"/></g></svg>
